imgs/privacy.svg

<svg width="38" height="44" viewBox="0 0 38 44" fill="none" xmlns="http://www.w3.org/2000/svg">
<path d="M37.217 4.02326L19.217 0.0232568C19.074 -0.00775226 18.926 -0.00775226 18.783 0.0232568L0.783 4.02326C0.56077 4.07266 0.362047 4.19641 0.219677 4.37405C0.0773066 4.5517 -0.000188228 4.7726 3.43331e-07 5.00026V25.0003C3.43331e-07 30.0394 2.00178 34.8721 5.56497 38.4353C9.12816 41.9985 13.9609 44.0003 19 44.0003C24.0391 44.0003 28.8718 41.9985 32.435 38.4353C35.9982 34.8721 38 30.0394 38 25.0003V5.00026C38.0002 4.7726 37.9227 4.5517 37.7803 4.37405C37.638 4.19641 37.4392 4.07266 37.217 4.02326ZM28 31.0003C28 31.2655 27.8946 31.5198 27.7071 31.7074C27.5196 31.8949 27.2652 32.0003 27 32.0003H11C10.7348 32.0003 10.4804 31.8949 10.2929 31.7074C10.1054 31.5198 10 31.2655 10 31.0003V21.0003C10 20.735 10.1054 20.4807 10.2929 20.2931C10.4804 20.1056 10.7348 20.0003 11 20.0003H14V15.0003C14 13.6742 14.5268 12.4024 15.4645 11.4647C16.4021 10.527 17.6739 10.0003 19 10.0003C20.3261 10.0003 21.5979 10.527 22.5355 11.4647C23.4732 12.4024 24 13.6742 24 15.0003V20.0003H27C27.2652 20.0003 27.5196 20.1056 27.7071 20.2931C27.8946 20.4807 28 20.735 28 21.0003V31.0003Z" fill="#08AE7E"/>
<path d="M19 12C18.2044 12 17.4413 12.3161 16.8787 12.8787C16.3161 13.4413 16 14.2044 16 15V20H22V15C22 14.2044 21.6839 13.4413 21.1213 12.8787C20.5587 12.3161 19.7956 12 19 12Z" fill="#08AE7E"/>
<path d="M19 28C20.1046 28 21 27.1046 21 26C21 24.8954 20.1046 24 19 24C17.8954 24 17 24.8954 17 26C17 27.1046 17.8954 28 19 28Z" fill="#08AE7E"/>
</svg>

<svg width="38" height="44" fill="none" xmlns="http://www.w3.org/2000/svg"><path d="M37.217 4.023l-18-4a1.024 1.024 0 00-.434 0l-18 4A1 1 0 000 5v20a19 19 0 0038 0V5a1 1 0 00-.783-.977zM28 31a1 1 0 01-1 1H11a1 1 0 01-1-1V21a1 1 0 011-1h3v-5a5 5 0 0110 0v5h3a1 1 0 011 1v10z" fill="#08AE7E"/><path d="M19 12a3 3 0 00-3 3v5h6v-5a3 3 0 00-3-3zm0 16a2 2 0 100-4 2 2 0 000 4z" fill="#08AE7E"/></svg>
